X:1
T:The Little Red Wagon
B:Singing Together, Autumn 1966, BBC Publications
F:http://www.folkinfo.org/songs
M:2/4     %Meter
L:1/16     %
K:G
GGGG G2GG |BBd2 B2G2 |AAAA A2AA |FFA2 F2D2 |
w:Jolt-ing up and down in the lit-tle red wa-gon, Jolt-ing up and down in the lit-tle red wa-gon, 
GGGG G2GG |BBd2 B2G2 |d3c B2A2 |G4 G2 z2 |]
w:Jolt-ing up and down in the lit-tle red wa-gon, Won't you be my dar-ling? 